X:355
T: Favorite Air
N: O'Farrell's Pocket Companion v.4 (Sky ed. p.153)
N: "Scotch"
M: C
L: 1/8
Q: 240
R: hornpipe
K: D
de| fedB A2GF| E2 ef e2de| fedB A2GF| ABde d2 :|
f2| gfga b2af| gfed f<ede| fedB BAGF| ABde d2 :|
